X:1
T:Borneo, 87.87.87.87.87
T:Borneo, 87.87.87.87.87
T:“B. M. J.”, 1913
T:Public Domain Courtesy of the Cyber Hymnal™
C:“B. M. J.”, 1913
Z:Public Domain
Z:Courtesy of the Cyber Hymnal™
%%score ( 1 2 ) ( 3 4 )
L:1/8
Q:1/4=82
M:3/8
K:C
V:1 treble 
V:2 treble 
V:3 bass 
V:4 bass 
V:1
"^Allegretto" [EG]2 [EG] | [Ec]2 [Ec] | ([Ec][Ge])[Ec] |!>(! [Ec]2 [DB]!>)! | [Fd]2 [Fd] | %5
 [FG]2 [FA] | [FG]2 [FB] | [Ec]2 z | [EG]2 [EG] | [Ec]2 [Ec] | ([Ec][Ge])[Ec] | %11
!>(! [Ec]2 [DB]!>)! | [Dd]2 [Dd] | [EA]2 [Ac] | [GB]2 [^FA] | G2 z | (GA)[FG] | [EG]2 [Ec] | %18
 ([Ec][DB])[Ec] |!>(! [Ge]2 [Gd]!>)! | [Fd]2 [Ae] | [Af]2 [Gf] |!>(! (ed)[Gc] | [Gd]2!>)! z | %24
 [Ge]2 [Ec] | [FA]2 B | [Ec]2 [FA] |!>(! [FA]2 [EG]!>)! | [Ge]2 [Ec] | [FA]2 B | [Ec]2 [FA] | %31
 [EG]2 z | ([Ec][DB])[Ec] | [Gd]2 [Ge] | [Af]2 [Gd] | !fermata![Gg]2 z |!p! ([Ge][Af])[Fd] | %37
 [Ec]2 [Ec] |"^rall." [DB]2 [Fd] | [Ec]6 |] %40
V:2
 x3 | x3 | x3 | x3 | x3 | x3 | x3 | x3 | x3 | x3 | x3 | x3 | x3 | x3 | x3 | G2 x | F2 x | x3 | x3 | %19
 x3 | x3 | x3 | G2 x | x3 | x3 | x2 (G/F/) | x3 | x3 | x3 | x2 (G/F/) | x3 | x3 | x3 | x3 | x3 | %35
 x3 | x3 | x3 | x3 | x6 |] %40
V:3
 [C,C]2 [C,C] | [C,G,]2 [C,G,] | [C,C]2 [C,C] | G,2 G, | [G,B,]2 [G,A,] | [G,B,]2 [G,C] | %6
 [G,B,]2 [G,D] | [C,C]2 z | C2 C | [C,C]2 [C,G,] | [C,C]2 [C,C] | G,2 G, | [B,,G,]2 [B,,G,] | %13
 [C,C]2 [C,E] | [D,D]2 [D,C] | [G,,B,]2 z | [G,B,]2 [G,B,] | [C,C]2 [C,C] | C2 C | [G,C]2 [G,B,] | %20
 [D,D]2 [A,^C] | [D,D]2 [G,B,] | C2 [E,C] | [G,B,]2 z | [C,C]2 [C,C] | [F,C]2 D | [A,C]2 [F,C] | %27
 [C,C]2 [C,C] | [C,C]2 [C,C] | [F,C]2 D | [A,C]2 [F,C] | [C,C]2 z | C2 C | [G,B,]2 [E,C] | %34
 [D,C]2 [G,B,] | !fermata![E,C]2 z | [C,C]2 [F,A,] | G,2 G, | [G,,G,]2 [G,,G,] | [C,G,]6 |] %40
V:4
 x3 | x3 | x3 | G,2 G, | x3 | x3 | x3 | x3 | C2 C | x3 | x3 | G,2 G, | x3 | x3 | x3 | x3 | x3 | %17
 x3 | C2 C | x3 | x3 | x3 | (C,D,) x | x3 | x3 | x2 (F,/G,/) | x3 | x3 | x3 | x2 (F,/G,/) | x3 | %31
 x3 | C2 C | x3 | x3 | x3 | x3 | G,2 G, | x3 | x6 |] %40

